!!!!SEGMENT: pl-kk--kk-i-62--001-006_anonim--missa-agnus-dei.krn
!!!cenid: 17xx:2255
!!!COM: Anonim
!!!COM-rismID: pe30004985
!!!CDT:
!!!CNT:
!!!OPR: Missa
!!!OTL: Agnus Dei
!!!OMV: 006
!!!PDT:
!!!AGN: Sacred; Mass
!!!YEC: Copyright 2022 Narodowy Instytut Fryderyka Chopina (https://polishscores.org)
!!!YEM: License CC-BY-4.0 (https://creativecommons.org/licenses/by/4.0)
!!!SMS-siglum: PL-Kk
!!!SMS-shelfmark: Kk.I.62
!!!SMS-shelfwork: 001-006 M
!!!SMS-variant:
!!!SMS-altvar:
!!!NIFC-rismSourceID: 1001157165
!!!NIFC-rismChildID: 1001157167
!!!NIFC-islandoraID: pl-kk:15700
!!!URL-pdf-islandora: https://repozytorium.nifc.pl/islandora/object/pl-kk%3A15700/datastream/PDF/view
!!!URL-scan: https://polish.musicsources.pl/pl/lokalizacje/galeria/rekopisy/7253/1 @EN{Scan on Polish Music Sources Website} @PL{Skany w portalu Dziedzictwo Muzyki Polskiej w otwartym dostępie}
!!!IIIF:
!!!ONB-nifc: UWAGA: w zbiorze: 001 – Missa i 002 – Ut detus ex Agni throno. Części Mszy (001): 1. Kyrie, 2. Gloria, 3. Credo, 4. Sanctus, 5. Benedictus, 6. Agnus Dei, 7. Dona nobis.
!!!AIN: 1 alto 1 bass 1 cbass 1 empty 1 tenor 1 vox
!!!key:
**kern	**dynam	**kern	**dynam	**kern	**text	**kern	**text	**kern	**text	**dynam	**kern	**text	**dynam
*part6	*	*part5	*	*part4	*	*part3	*	*part2	*	*	*part1	*	*
*staff6	*	*staff5	*	*staff4	*	*staff3	*	*staff2	*	*	*staff1	*	*
*Ibass	*	*Icbass	*	*Iempty	*	*Itenor	*	*Ialto	*	*	*Ivox	*	*
*I"Baſso Accompagniato.	*	*I"Contra Baſso.	*	*I"Baſso	*	*I"Tenore	*	*I"Alto	*	*	*I"Canto	*	*
*I'B Acc	*	*I'cb	*	*I'B	*	*I'T	*	*I'A	*	*	*I'C	*	*
*clefF4	*	*clefF4	*	*clefF4	*	*clefC4	*	*clefC3	*	*	*clefC1	*	*
*Trd0c0	*	*Trd0c0	*	*	*	*	*	*	*	*	*	*	*
*k[b-e-]	*	*k[b-e-]	*	*k[b-e-]	*	*k[b-e-]	*	*k[b-e-]	*	*	*k[b-e-]	*	*
*B-:	*	*B-:	*	*B-:	*	*B-:	*	*B-:	*	*	*B-:	*	*
*M3/4	*	*M3/4	*	*M3/4	*	*M3/4	*	*M3/4	*	*	*M3/4	*	*
*all\right	*	*all\right	*	*all\right	*	*all\right	*	*all\right	*	*	*all\right	*	*
=1	=1	=1	=1	=1	=1	=1	=1	=1	=1	=1	=1	=1	=1
*	*	*	*	*	*	*	*	*2\right	*	*	*	*	*
!LO:TX:a:t=Adag	!LO:DY:b:rj	!LO:TX:a:t=Adag	!LO:DY:b:rj	!LO:TX:a:t=Adag	!	!LO:TX:a:t=Adag	!	!LO:TX:a:t=Adag.	!	!	!LO:TX:a:t=Adag	!	!
8BB-/L	f	(8BB-/	fp	4BB-/	A-	4F/	A-	(2d\	A-	.	4.b-\	A-	.
8BB-/J	.	4BB-/	.	.	.	.	.	.	.	.	.	.	.
*tremolo	*	*	*	*	*	*	*	*	*	*	*	*	*
8BB-/L	.	.	.	4r	.	4r	.	.	.	.	.	.	.
!	!	!	!	!	!	!	!	!	!	!	!LO:TX:a:t=P:mixedbeam:problem	!	!
8BB-/	.	4BB-/	.	.	.	.	.	.	.	.	8f/L	.	.
8BB-/	.	.	.	8.r	.	8.r	.	8f\)	.	.	8dd\J	.	.
8BB-/J	.	8BB-/)	.	.	.	.	.	8d\	-gnus	.	8b-\	-gnus	.
*Xtremolo	*	*	*	*	*	*	*	*	*	*	*	*	*
.	.	.	.	16BB-/	-gnus	16d\	-gnus	.	.	.	.	.	.
=2	=2	=2	=2	=2	=2	=2	=2	=2	=2	=2	=2	=2	=2
8F/L	.	4F\	.	4F\	De-	4d\	De-	4f\	De-	.	4b-M\	De-	.
8C/	.	.	.	.	.	.	.	.	.	.	.	.	.
8AA/	.	4C/	.	4FF/	-i	4c\	-i	4f\	-i	.	4a\	-i	.
8C/J	.	.	.	.	.	.	.	.	.	.	.	.	.
4FF/	.	4FF/	.	4r	.	4r	.	4r	.	.	4r	.	.
=3	=3	=3	=3	=3	=3	=3	=3	=3	=3	=3	=3	=3	=3
*2\right	*	*	*	*	*	*	*	*	*	*	*	*	*
*tremolo	*	*	*	*	*	*	*	*	*	*	*	*	*
8F\L	.	(8F\	.	4F\	A-	4c\	Q-	[2a\	A-	.	(4.cc\	A-	.
8F\	.	4F\	.	.	.	.	.	.	.	.	.	.	.
8F\	.	.	.	4r	.	4r	.	.	.	.	.	.	.
!	!	!	!	!	!	!	!	!	!	!	!LO:TX:a:t=P:problem=mixedbeam	!	!
8F\	.	4F\	.	.	.	.	.	.	.	.	8f/L	.	.
!	!	!	!	!	!	!	!	!LO:N:xstem:cue	!	!	!	!	!
8F\	.	.	.	8.r	.	8.r	.	8a\]	.	.	8ee-\J)	.	.
8F\J	.	8F\)	.	.	.	.	.	8a\	-gnus	.	8cc\	-gnus	.
*Xtremolo	*	*	*	*	*	*	*	*	*	*	*	*	*
.	.	.	.	16F\	-gnus	16c\	-gnus	.	.	.	.	.	.
!	!	!	!	!	!	!LO:LB:g=original	!	!LO:LB:g=original	!	!	!	!	!
=4	=4	=4	=4	=4	=4	=4	=4	=4	=4	=4	=4	=4	=4
4F\	.	4F\	.	4F\	De-	(8A\L	De-	(8a\L	De-	.	(8cc#X\L	De-	.
.	.	.	.	.	.	8B-\J)	.	8b-\J)	.	.	8dd\J)	.	.
*tremolo	*	*	*	*	*	*	*	*	*	*	*	*	*
8BB-/L	.	4BB-/	.	4BB-/	-i	4B-\	-i	4b-\	-i	.	4dd\	-i	.
8BB-/	.	.	.	.	.	.	.	.	.	.	.	.	.
!	!	!	!	!LO:LB:g=original	!	!	!	!	!	!	!	!	!
=-	=-	=-	=-	=-	=-	=-	=-	=-	=-	=-	=-	=-	=-
8BB-/	.	8.r	.	8.r	.	8.r	.	8.r	.	.	8.r	.	.
8BB-/J	.	.	.	.	.	.	.	.	.	.	.	.	.
*Xtremolo	*	*	*	*	*	*	*	*	*	*	*	*	*
.	.	16D/	.	16D/	qui	16F/	qui	16d\	qui	.	16b-\	qui	.
!LO:LB:g=original	!	!LO:LB:g=original	!	!	!	!	!	!	!	!	!LO:LB:g=original	!	!
=5	=5	=5	=5	=5	=5	=5	=5	=5	=5	=5	=5	=5	=5
*tremolo	*	*	*	*	*	*	*	*	*	*	*	*	*
8E-\L	.	8.r	.	8.r	.	8.r	.	(8f\L	tol-	.	(8a/L	tol-	.
8E-\	.	.	.	.	.	.	.	8e-\J)	.	.	8g/J)	.	.
.	.	16E-X\	.	16E-\	tol-	16G/	tol-	.	.	.	.	.	.
8E-\	.	4E-\	.	4E-\	-lis	4G/	-lis	4e-\	-lis	.	4g/	-lis	.
8E-\J	.	.	.	.	.	.	.	.	.	.	.	.	.
*Xtremolo	*	*	*	*	*	*	*	*	*	*	*	*	*
8En\L	.	8.r	.	8.r	.	8.r	.	8.r	.	.	8.r	.	.
8E\J	.	.	.	.	.	.	.	.	.	.	.	.	.
.	.	16En|\	.	16En\	pec-	16G/	pec-	16g\	pec-	.	16b-\	pec-	.
=6	=6	=6	=6	=6	=6	=6	=6	=6	=6	=6	=6	=6	=6
!	!	!	!	!	!	!	!	!	!	!	!LO:TUP:b:problem=klamra łukowa, przecinek zamiast numeru	!	!
8F/L	.	(8E-\L	.	(8E-\L	-ca-	4c\	-ca-	(8g\L	-ca-	.	12e#X/L	-ca-	.
.	.	.	.	.	.	.	.	.	.	.	12g/	.	.
8F/	.	8F\J)	.	8F\J)	.	.	.	8a\J)	.	.	.	.	.
.	.	.	.	.	.	.	.	.	.	.	12f/J	.	.
8C/	.	4FF/	.	4F\	-ta	4c\	-ta	4a\	-ta	.	4f/	-ta	.
8AA/J	.	.	.	.	.	.	.	.	.	.	.	.	.
4FF/	.	4r	.	4r	.	4r	.	4r	.	.	4r	.	.
=7	=7	=7	=7	=7	=7	=7	=7	=7	=7	=7	=7	=7	=7
*	*	*	*	*	*ij	*	*ij	*	*	*	*	*	*
8F/L	.	8r	.	4F\	pec-	4c\	pec-	4a\	pec-	.	4ff\	pec-	.
8F/	.	8F/	.	.	.	.	.	.	.	.	.	.	.
8C/	.	8r	.	4C/	-ca-	4c\	-ca-	4a\	-ca-	.	4ff\	-ca-	.
8C/	.	8C/	.	.	.	.	.	.	.	.	.	.	.
8AA/	.	8r	.	4AA/	-ta	4c\	-ta	4a\	-ta	.	4ff\	-ta	.
*	*	*	*	*	*Xij	*	*Xij	*	*	*	*	*	*
8AA/J	.	8AA/	.	.	.	.	.	.	.	.	.	.	.
!	!	!	!	!	!	!LO:LB:g=original	!	!LO:LB:g=original	!	!	!	!	!
=8	=8	=8	=8	=8	=8	=8	=8	=8	=8	=8	=8	=8	=8
8FF/L	.	4FF/	.	4FF/	m(un)-	4c\	m(un)-	4f\	mun-	.	4ee-X\	mun-	.
8AA/J	.	.	.	.	.	.	.	.	.	.	.	.	.
4BB-/	.	4BB-/	.	4BB-/	-di	4c\	-di	4f\	-di	.	4dd\	-di	.
!	!	!LO:TX:b:i:t=Volti	!	!	!	!	!	!	!	!	!	!	!
4r	.	4r	.	4r	.	4r	.	4r	.	.	4r	.	.
!	!	!LO:PB:g=original	!	!LO:LB:g=original	!	!	!	!	!	!	!	!	!
=9	=9	=9	=9	=9	=9	=9	=9	=9	=9	=9	=9	=9	=9
*tremolo	*	*	*	*	*	*	*	*	*	*	*2\right	*	*
!	!	!	!LO:DY:b:rj:t=fp.	!	!	!	!	!	!	!	!	!	!
8F\L	.	(8F\	fp	8F\L	Mi-	2A/	Mi-	8a\L	Mi-	.	2cc\	Mi-	.
8A\	.	4F\	.	8A\	.	.	.	8f\	.	.	.	.	.
8F\	.	.	.	8F\	.	.	.	8a\	.	.	.	.	.
8A\	.	4F\	.	8A\J	.	.	.	8f\J	.	.	.	.	.
8F\	.	.	.	8F\L	-se-	4A/	-se-	8a\L	-se-	.	4cc\	-se-	.
8A\J	.	8F\)	.	8A\J	.	.	.	8f\J	.	.	.	.	.
!LO:LB:g=original	!	!	!	!	!	!	!	!	!	!	!	!	!
=10	=10	=10	=10	=10	=10	=10	=10	=10	=10	=10	=10	=10	=10
*	*	*	*	*tremolo	*	*2\right	*	*tremolo	*	*	*	*	*
8F\L	.	(8D/	.	8F\L	-re-	2B-\	-re-	8b-\L	-re-	.	2dd\	-re-	.
8B-\	.	4D/	.	8B-\	.	.	.	8f\	.	.	.	.	.
8F\	.	.	.	8F\	.	.	.	8b-\	.	.	.	.	.
8B-\	.	4D/	.	8B-\J	.	.	.	8f\J	.	.	.	.	.
*	*	*	*	*	*	*	*	*Xtremolo	*	*	*	*	*
!	!	!	!	!	!	!	!	!	!	!	!LO:LB:g=original	!	!
=-	=-	=-	=-	=-	=-	=-	=-	=-	=-	=-	=-	=-	=-
8F\	.	.	.	8F\L	-re	4B-\	-re	8b-\L	-re	.	4dd\	-re	.
8B-\J	.	8D/)	.	8B-\J	.	.	.	8f\J	.	.	.	.	.
=11	=11	=11	=11	=11	=11	=11	=11	=11	=11	=11	=11	=11	=11
*	*	*	*	*	*	*	*ij	*tremolo	*	*	*	*	*
8E-\L	.	(8AA/	.	8E-\L	Mi-	2c\	Mi-	8cc\L	Mi-	.	2a\	Mi-	.
8F\	.	4AA/	.	8F\	.	.	.	8a\	.	.	.	.	.
8E-\	.	.	.	8E-\	.	.	.	8cc\	.	.	.	.	.
8F\	.	4AA/	.	8F\J	.	.	.	8a\J	.	.	.	.	.
*	*	*	*	*	*	*	*	*Xtremolo	*	*	*	*	*
8E-\	.	.	.	8E-\L	-se-	4c\	-se-	8cc\L	-se-	.	4a\	-se-	.
8F\J	.	8AA/)	.	8F\J	.	.	.	8a\J	.	.	.	.	.
=12	=12	=12	=12	=12	=12	=12	=12	=12	=12	=12	=12	=12	=12
*	*	*	*	*	*	*	*	*tremolo	*	*	*	*	*
8D\L	.	(8BB-X/	.	8D\L	-re-	2d\	-re-	8b-\L	-re-	.	2b-\	-re-	.
8F\	.	4BB-/	.	8F\	.	.	.	8dd\	.	.	.	.	.
8D\	.	.	.	8D\	.	.	.	8b-\	.	.	.	.	.
8F\	.	4BB-/	.	8F\J	.	.	.	8dd\J	.	.	.	.	.
*	*	*	*	*	*	*	*	*Xtremolo	*	*	*	*	*
8D\	.	.	.	8D\L	-re	4d\	-re	8b-\L	-re	.	4b-\	-re	.
*	*	*	*	*	*	*	*Xij	*	*	*	*	*	*
8F\J	.	8BB-/)	.	8F\J	.	.	.	8dd\J	.	.	.	.	.
!	!	!LO:LB:g=original	!	!	!	!	!	!LO:LB:g=original	!	!	!	!	!
=13	=13	=13	=13	=13	=13	=13	=13	=13	=13	=13	=13	=13	=13
*	*	*	*	*	*	*	*	*tremolo	*	*	*	*	*
!	!	!	!	!	!	!	!	!	!	!LO:DY:b:rj:t=po	!	!	!LO:DY:b:rj
8F\L	.	(8E-/	.	8F\L	Mi-	2A/	mi-	8a\L	Mi-	p	2cc\	Mi-	p
8A\	.	4E-/	.	8A\	.	.	.	8f\	.	.	.	.	.
8F\	.	.	.	8F\	.	.	.	8a\	.	.	.	.	.
8A\	.	4E-/	.	8A\J	.	.	.	8f\J	.	.	.	.	.
*	*	*	*	*	*	*	*	*Xtremolo	*	*	*	*	*
8F\	.	.	.	8F\L	-se-	4A/	-se-	8a\L	-se-	.	4cc\	-se-	.
8A\J	.	8E-/)	.	8A\J	.	.	.	8f\J	.	.	.	.	.
!	!	!	!	!	!	!LO:LB:g=original	!	!	!	!	!	!	!
=14	=14	=14	=14	=14	=14	=14	=14	=14	=14	=14	=14	=14	=14
*	*	*	*	*	*	*	*	*tremolo	*	*	*	*	*
8F\L	.	(8D-X/	.	8F\L	-re-	2B-\	-re-	8b-\L	-re-	.	2dd-X\	-re-	.
8B-\	.	4D-/	.	8B-\	.	.	.	8f\	.	.	.	.	.
8F\	.	.	.	8F\	.	.	.	8b-\	.	.	.	.	.
8B-\	.	4D-/	.	8B-\J	.	.	.	8f\J	.	.	.	.	.
*	*	*	*	*	*	*	*	*Xtremolo	*	*	*	*	*
8F\	.	.	.	8F\L	-re	4B-\	-re	8b-\L	-re	.	4dd-\	-re	.
8B-\J	.	8D-/)	.	8B-\J	.	.	.	8f\J	.	.	.	.	.
=15	=15	=15	=15	=15	=15	=15	=15	=15	=15	=15	=15	=15	=15
*	*	*	*	*	*	*	*	*tremolo	*	*	*	*	*
8E-\L	.	(8AA/	.	8E-\L	no	2.c\	no-	8a\L	no-	.	2.a\	no-	.
8F\	.	4AA/	.	8F\	.	.	.	8cc\	.	.	.	.	.
8E-\	.	.	.	8E-\	.	.	.	8a\	.	.	.	.	.
8F\	.	4AA/	.	8F\	.	.	.	8cc\	.	.	.	.	.
8E-\	.	.	.	8E-\	.	.	.	8a\	.	.	.	.	.
8F\J	.	8AA/)	.	8F\J	.	.	.	8cc\J	.	.	.	.	.
*Xtremolo	*	*	*	*Xtremolo	*	*	*	*Xtremolo	*	*	*	*	*
!	!	!	!	!LO:PB:g=original	!	!	!	!	!	!	!	!	!
=16	=16	=16	=16	=16	=16	=16	=16	=16	=16	=16	=16	=16	=16
!	!LO:DY:b	!	!LO:DY:b:rj	!	!	!	!	!	!	!	!	!	!
8BB-/L	f	4BB-/	f	4Dm\	Mi-	2.d\	-bis	2.f\	-bis	.	2.b-\	-bis	.
8D/J	.	.	.	.	.	.	.	.	.	.	.	.	.
!LO:LB:g=original	!	!	!	!	!	!	!	!	!	!	!	!	!
=-	=-	=-	=-	=-	=-	=-	=-	=-	=-	=-	=-	=-	=-
8F\L	.	4F\	.	4F\	.	.	.	.	.	.	.	.	.
8A\J	.	.	.	.	.	.	.	.	.	.	.	.	.
8B-\L	.	4B-\	.	4B-\	-se-	.	.	.	.	.	.	.	.
8BB-\J	.	.	.	.	.	.	.	.	.	.	.	.	.
=17	=17	=17	=17	=17	=17	=17	=17	=17	=17	=17	=17	=17	=17
*	*	*	*	*2\right	*	*	*	*	*	*	*	*	*
!	!	!	!	!	!	!	!	!	!LO:DY:b:rj	!	!	!LO:DY:b:rj	!
(>8FF/	.	4F\	.	2.F\	-re-	2.r	.	(4cc\	Mi-	f	(4ee-X\	Mi-	f
4F\	.	.	.	.	.	.	.	.	.	.	.	.	.
!	!	!LO:LB:g=original	!	!	!	!	!	!	!	!	!	!	!
=-	=-	=-	=-	=-	=-	=-	=-	=-	=-	=-	=-	=-	=-
.	.	4F\	.	.	.	.	.	4b-\)	.	.	4ddn\)	.	.
4F\	.	.	.	.	.	.	.	.	.	.	.	.	.
.	.	4FF/	.	.	.	.	.	4a\	-se-	.	4cc\	-se-	.
8F\)	.	.	.	.	.	.	.	.	.	.	.	.	.
!	!	!	!	!	!	!	!	!	!	!	!LO:LB:g=original	!	!
=18	=18	=18	=18	=18	=18	=18	=18	=18	=18	=18	=18	=18	=18
8E-\L	.	4E-\	.	(4E-\	.	2.r	.	(4f\	-re-	.	(4dd\	-re-	.
8E-\	.	.	.	.	.	.	.	.	.	.	.	.	.
8F\	.	4F\	.	4F\)	.	.	.	4e-\)	.	.	4cc\)	.	.
8F\	.	.	.	.	.	.	.	.	.	.	.	.	.
!	!	!	!	!	!	!	!	!LO:LB:g=original	!	!	!	!	!
=-	=-	=-	=-	=-	=-	=-	=-	=-	=-	=-	=-	=-	=-
!LO:TX:a:t=d	!	!	!	!	!	!	!	!	!	!	!	!	!
8D\	.	4D\	.	4D\	-re	.	.	4d\	-re	.	4b-\	-re	.
8D\J	.	.	.	.	.	.	.	.	.	.	.	.	.
=19	=19	=19	=19	=19	=19	=19	=19	=19	=19	=19	=19	=19	=19
!LO:TX:a:t=P:problem=mixedbeam	!	!	!	!	!	!	!	!	!	!	!	!	!
8E-\L	.	4E-\	.	(4E-\	no-	2.c\	no-	(4e-\	no-	.	(4cc\	no-	.
8E-\	.	.	.	.	.	.	.	.	.	.	.	.	.
8F\	.	4F\	.	4F\)	.	.	.	2f\)	.	.	4b-\	.	.
8F\	.	.	.	.	.	.	.	.	.	.	.	.	.
8FF/	.	4FF/	.	4FF/	.	.	.	.	.	.	4a\)	.	.
8FF/J	.	.	.	.	.	.	.	.	.	.	.	.	.
=20	=20	=20	=20	=20	=20	=20	=20	=20	=20	=20	=20	=20	=20
8BB-/L	.	4BB-/	.	2BB-/	-bis	2d\	-bis	2d\	-bis	.	2b-\	-bis	.
16D/L	.	.	.	.	.	.	.	.	.	.	.	.	.
16F/JJ	.	.	.	.	.	.	.	.	.	.	.	.	.
4B-\	.	4B-\	.	.	.	.	.	.	.	.	.	.	.
4r	.	4r	.	4r	.	4r	.	4r	.	.	4r	.	.
!LO:LB:g=original	!	!	!	!	!	!LO:LB:g=original	!	!	!	!	!	!	!
=21	=21	=21	=21	=21	=21	=21	=21	=21	=21	=21	=21	=21	=21
!LO:TX:a:t=P:problem=mixedbeam	!	!	!LO:DY:b:rj	!	!	!LO:TX:t=P:problem=takty 21-24 zapisane jako repetycja	!	!	!	!	!	!	!
8FF/L	.	8FF/	fp	2FF/	mi-	2.r	.	4dd\	mi-	.	4r	.	.
*	*	*tremolo	*	*	*	*	*	*	*	*	*	*	*
!	!	!LO:N:vis=2.	!	!	!	!	!	!	!	!	!	!	!
8F\J	.	8F\L	.	.	.	.	.	.	.	.	.	.	.
*tremolo	*	*	*	*	*	*	*	*	*	*	*	*	*
8F\L	.	8F\	.	.	.	.	.	4a\	-se-	.	4ee-\	Mi-	.
8F\	.	8F\	.	.	.	.	.	.	.	.	.	.	.
8F\	.	8F\	.	4FF/	-se-	.	.	4r	.	.	4cc\	-se-	.
8F\J	.	8F\J	.	.	.	.	.	.	.	.	.	.	.
*	*	*Xtremolo	*	*	*	*	*	*	*	*	*	*	*
=22	=22	=22	=22	=22	=22	=22	=22	=22	=22	=22	=22	=22	=22
8F\L	.	4F\	.	2FF/	-re-	2.r	.	4r	.	.	4r	.	.
8F\	.	.	.	.	.	.	.	.	.	.	.	.	.
8F\	.	4FF/	.	.	.	.	.	4b-\	-re-	.	4dd\	-re-	.
8F\	.	.	.	.	.	.	.	.	.	.	.	.	.
!	!	!LO:LB:g=original	!	!LO:LB:g=original	!	!	!	!	!	!	!	!	!
=-	=-	=-	=-	=-	=-	=-	=-	=-	=-	=-	=-	=-	=-
8F\	.	4F\	.	4FF/	-re	.	.	4d\	-re	.	4b-\	-re	.
8F\J	.	.	.	.	.	.	.	.	.	.	.	.	.
*Xtremolo	*	*	*	*	*	*	*	*	*	*	*	*	*
=23	=23	=23	=23	=23	=23	=23	=23	=23	=23	=23	=23	=23	=23
!LO:TX:a:t=P:problem=mixedbeam	!	!	!	!	!	!	!	!	!	!	!	!	!
8E-\L	.	8E-\L	.	(4E-\	no-	2.c\	no-	(4e-\	no-	.	(4cc\	no-	.
8E-\	.	8E-\	.	.	.	.	.	.	.	.	.	.	.
8F\	.	8F\	.	4F\	.	.	.	4d\	.	.	4b-\	.	.
8F\	.	8F\J	.	.	.	.	.	.	.	.	.	.	.
8FF/	.	4FF/	.	4FF/)	.	.	.	4c\)	.	.	4a\)	.	.
8FF/J	.	.	.	.	.	.	.	.	.	.	.	.	.
=24	=24	=24	=24	=24	=24	=24	=24	=24	=24	=24	=24	=24	=24
8BB-/L	.	4BB-/	.	2BB-/	-bis	2d\	-bis	2d\	-bis	.	2b-\	-bis	.
16D/L	.	.	.	.	.	.	.	.	.	.	.	.	.
16F/JJ	.	.	.	.	.	.	.	.	.	.	.	.	.
4B-\	.	4r	.	.	.	.	.	.	.	.	.	.	.
4r	.	4r	.	4r	.	4r	.	4r	.	.	4r	.	.
!	!	!	!	!	!	!	!	!LO:LB:g=original	!	!	!LO:PB:g=original	!	!
=25	=25	=25	=25	=25	=25	=25	=25	=25	=25	=25	=25	=25	=25
*tremolo	*	*	*	*	*	*	*	*	*	*	*	*	*
!	!	!	!	!	!	!	!	!	!	!LO:DY:b:rj:t=po	!	!	!LO:DY:b:rj
8BB-/L	.	4BB-/	.	2BB-/	Mi-	2BB-/	mi-	4r	.	p	4r	.	pp
8BB-/	.	.	.	.	.	.	.	.	.	.	.	.	.
8BB-/	.	4BB-/	.	.	.	.	.	4g-X\	Mi-	.	4b-\	Mi-	.
8BB-/	.	.	.	.	.	.	.	.	.	.	.	.	.
8BB-/	.	4BB-/	.	4BB-/	-se-	4BB-/	-se-	4f\	-se-	.	4a-X\	-se-	.
8BB-/J	.	.	.	.	.	.	.	.	.	.	.	.	.
=26	=26	=26	=26	=26	=26	=26	=26	=26	=26	=26	=26	=26	=26
8BB-/L	.	4BB-/	.	2BB-/	-re-	2BB-/	-re-	2e-\	-re-	.	2g-X/	-re-	.
8BB-/	.	.	.	.	.	.	.	.	.	.	.	.	.
8BB-/	.	4BB-/	.	.	.	.	.	.	.	.	.	.	.
8BB-/	.	.	.	.	.	.	.	.	.	.	.	.	.
8BB-/	.	4BB-/	.	4BB-/	-re	4BB-/	-re	4d\	-re	.	4f/	-re	.
8BB-/J	.	.	.	.	.	.	.	.	.	.	.	.	.
*Xtremolo	*	*	*	*	*	*	*	*	*	*	*	*	*
=27	=27	=27	=27	=27	=27	=27	=27	=27	=27	=27	=27	=27	=27
4BB-/	.	4BB-/	.	(4BB-/	no-	(4G-X/	no-	(4g-X\	no-	.	2.e-/	no-	.
4C-X/	.	4C-X/	.	4C-X/	.	4F/	.	4f\	.	.	.	.	.
!LO:LB:g=original	!	!	!	!	!	!	!	!	!	!	!	!	!
=-	=-	=-	=-	=-	=-	=-	=-	=-	=-	=-	=-	=-	=-
4AA#X/	.	4AA#X/	.	4AA#X/)	.	4E-/)	.	4e-\)	.	.	.	.	.
=28	=28	=28	=28	=28	=28	=28	=28	=28	=28	=28	=28	=28	=28
!	!	!	!	!	!	!LO:TX:b:i:t=Allo	!	!LO:TX:b:i:t=Allo	!	!	!LO:TX:b:i:t=Allo	!	!
2.BB-;</	.	2BB-/	.	2.BB-/	-bis	2.F/	-bis	2.d\	-bis	.	2.d/	-bis	.
.	.	4r	.	.	.	.	.	.	.	.	.	.	.
==	==	==	==	==	==	==	==	==	==	==	==	==	==
*-	*-	*-	*-	*-	*-	*-	*-	*-	*-	*-	*-	*-	*-
!!!system-decoration: [(s1,s2,s3,s4)][(s5,s6)]
!!!RDF**kern: < = below
!!!RDF**kern: > = above
!!!RDF**kern: | = vertical stroke
!!!ENC: Marta Chmielewska
!!!END: 2021-08-04
!!!ENC: Berenika Jozajtis
!!!END: 2021-07-23
